X:1
T:It Ain't Gonna Rain no More
M:4/4
L:1/8
K:G
 D| G2 GG G4| G2 GG D4| G2 GG F2 G2| A4 z4| c2 c2 A2 AA| F2 F2 D2 DD|\
 D2 DD E2 F2| G6 z||
